!!!!SEGMENT: pl-sa--549-a-ix-29--033_anonim--krakowiak.krn
!!!cenid: 18xx:487
!!!COM: Anonim
!!!COM-rismID: pe30004985
!!!CDT:
!!!CNT:
!!!OTL: Krakowiak
!!!PDT:
!!!AGN: Secular; Krakowiak
!!!SMS-siglum: PL-SA
!!!SMS-shelfmark: 549/A IX 29
!!!SMS-shelfwork: 033 W
!!!SMS-variant:
!!!SMS-altvar:
!!!NIFC-rismSourceID: 1001068921
!!!NIFC-islandoraID:
!!!URL-pdf-islandora:
!!!URL-scan: https://bc.bdsandomierz.pl/dlibra/publication/1441/edition/1409/content @EN{Scan in the Sandomierz Diocese Digital Library} @PL{Skany w portalu Cyfrowa Biblioteka Diecezjalna w Sandomierzu}
!!!ONB-nifc: Str. 23 (s. 6) – str. 24 (s. 1)
!!!AIN: 1 piano
!!!key: C
**kern	**kern
*part1	*part1
*staff2	*staff1
*I"[Pianoforte]	*I"[Pianoforte]
*Ipiano	*Ipiano
*ICklav	*ICklav
*clefF4	*clefG2
*k[]	*
*C:	*
*M2/4	*M2/4
=1	=1
*2\right	*2\right
*tremolo	*
!LO:TX:t=P:N:vis=2. zamiast 2:problem=t. 1-8 – LO	!
8B 8G\L	8b\L
8d\	8dd\
8B 8G\	8ff\
8d\J	8aa\J
=2	=2
8c 8G\L	16aa\LL
.	16gg\JJ
8e\	4ee\
8c 8G\	.
8e\J	8gg\
=3	=3
8B 8G\L	16ff#X\LL
.	16gg\
8d\	16aa\
.	16gg\JJ
8B 8G\	8ffn\L
8d\J	8dd\J
=4	=4
8c 8G\L	8cc\
8e\	4ee\
8c 8G\	.
8e\J	8cc\
=5	=5
8B 8G\L	8b\L
8d\	8dd\
8B 8G\	8ff\
8d\J	8aa\J
=6	=6
8c 8G\L	8gg\
8e\	4ee\
8c 8G\	.
8e\J	8gg\
=7	=7
8B 8G\L	16ff#X\LL
.	16gg\
8d\	16aa\
.	16gg\JJ
8B 8G\	8ffn\L
8d\J	8dd\J
=8	=8
8c 8G\L	8dd\L
8e\	8cc\J
8c 8G\	8r
8e\J	8cc\
=9:|!|:	=9:|!|:
*clefG2	*
8c/L	16ff\LL
.	16aa\
8a 8f/	16ccc\
.	16bb\JJ
8a 8f/	16ddd\LL
.	16ccc\
8aJ 8f/	16bb\
.	16aa\JJ
=10	=10
8c/L	8gg\
8g 8e/	4ee\
8g 8e/	.
8gJ 8e/	8gg\
!!pagebreak:original
=11	=11
8G/L	16ff#X\LL
.	16gg\
8f 8d/	16aa\
.	16gg\JJ
8f 8d/	8ffn\L
8fJ 8d/	8dd\J
=12	=12
8c/L	16cc\LL
.	16dd\
8g 8e/	16ee\
.	16ff\JJ
8g 8e/	4gg\
8gJ 8e/	.
=13	=13
8c/L	16ff\LL
.	16aa\
8a 8f/	16ccc\
!	!LO:SIC:v:s=16aa\JJ
!	!LO:TX:t=a
.	16ccc\JJ
8a 8f/	16ddd\LL
.	16ccc\
8aJ 8f/	16bb\
.	16aa\JJ
=14	=14
8c/L	8gg\
8g 8e/	4ee\
8g 8e/	.
8gJ 8e/	8gg\
=15	=15
8G/L	16ff#X\LL
.	16gg\
8f 8d/	16aa\
.	16gg\JJ
8f 8d/	8ffn\L
8fJ 8d/	8dd\J
=16	=16
8c/L	8dd\L
8g 8e/	8cc\J
8g 8e/	8r
8gJ 8e/	8cc\
=:|!;	=:|!;
*-	*-
!!!system-decoration: {(s1,s2)}
!!!RDF**kern: > = above
!!!RDF**kern: < = below
!!!ENC: Katarzyna Serwa
!!!END: 2022-01-05
!!!ENC: Anastazja Marusiak
!!!END: 2020-06-17
